X:2572
L:1/8
M:4/4
K:Amin
 ^G |: A2 eA cAeA | B2 gB (3cBA GB | A2 eA cAeA | BAGB A3 :| ^g | ae e2 agef | gB B2 g3 ^g | 
 ae e2 aged | (3Bcd gd BGBd | ae e2 agef | gB B2 g3 ^g | afge fded | (3Bcd gB BAGB | 
[K:Ador] A2 eA BAeA | B2 gB BAGB | A2 eA BAeA |1 BAGA BAAG :|2 BAGA BAAg || ae e2 agef | 
 gB B2 g2 fg | ae e2 aged | BAGA BA A2 | ae e2 agef | gB B2 g2 fg | afge fded | BAGA BAAG ||

